vendor/craftcms/cms/src/icons/solid/user-robot.svg

<svg xmlns="http://www.w3.org/2000/svg" viewBox="0 0 448 512"><!--! Font Awesome Pro 6.7.2 by @fontawesome - https://fontawesome.com License - https://fontawesome.com/license (Commercial License) Copyright 2024 Fonticons, Inc. --><path d="M224 0c8.8 0 16 7.2 16 16l0 48 64 0c35.3 0 64 28.7 64 64l0 128c0 35.3-28.7 64-64 64l-160 0c-35.3 0-64-28.7-64-64l0-128c0-35.3 28.7-64 64-64l64 0 0-48c0-8.8 7.2-16 16-16zM16 144c0-8.8 7.2-16 16-16s16 7.2 16 16l0 96c0 8.8-7.2 16-16 16s-16-7.2-16-16l0-96zm400-16c8.8 0 16 7.2 16 16l0 96c0 8.8-7.2 16-16 16s-16-7.2-16-16l0-96c0-8.8 7.2-16 16-16zM160 192a32 32 0 1 0 0-64 32 32 0 1 0 0 64zm160-32a32 32 0 1 0 -64 0 32 32 0 1 0 64 0zM160 240a16 16 0 1 0 0 32 16 16 0 1 0 0-32zm48 16a16 16 0 1 0 32 0 16 16 0 1 0 -32 0zm80-16a16 16 0 1 0 0 32 16 16 0 1 0 0-32zM96 352l256 0c53 0 96 43 96 96l0 32c0 17.7-14.3 32-32 32l-64 0 0-64c0-17.7-14.3-32-32-32l-192 0c-17.7 0-32 14.3-32 32l0 64-64 0c-17.7 0-32-14.3-32-32l0-32c0-53 43-96 96-96zm80 112l0 48-32 0 0-48c0-8.8 7.2-16 16-16s16 7.2 16 16zm48-16c8.8 0 16 7.2 16 16l0 48-32 0 0-48c0-8.8 7.2-16 16-16zm80 16l0 48-32 0 0-48c0-8.8 7.2-16 16-16s16 7.2 16 16z"/></svg>

<svg xmlns="http://www.w3.org/2000/svg" viewBox="0 0 448 512"><!--! Font Awesome Pro 6.5.1 by @fontawesome - https://fontawesome.com License - https://fontawesome.com/license (Commercial License) Copyright 2023 Fonticons, Inc. --><path d="M224 0c8.8 0 16 7.2 16 16V64h64c35.3 0 64 28.7 64 64V256c0 35.3-28.7 64-64 64H144c-35.3 0-64-28.7-64-64V128c0-35.3 28.7-64 64-64h64V16c0-8.8 7.2-16 16-16zM16 144c0-8.8 7.2-16 16-16s16 7.2 16 16v96c0 8.8-7.2 16-16 16s-16-7.2-16-16V144zm400-16c8.8 0 16 7.2 16 16v96c0 8.8-7.2 16-16 16s-16-7.2-16-16V144c0-8.8 7.2-16 16-16zM160 192a32 32 0 1 0 0-64 32 32 0 1 0 0 64zm160-32a32 32 0 1 0 -64 0 32 32 0 1 0 64 0zM160 240a16 16 0 1 0 0 32 16 16 0 1 0 0-32zm48 16a16 16 0 1 0 32 0 16 16 0 1 0 -32 0zm80-16a16 16 0 1 0 0 32 16 16 0 1 0 0-32zM96 352H352c53 0 96 43 96 96v32c0 17.7-14.3 32-32 32H352V448c0-17.7-14.3-32-32-32H128c-17.7 0-32 14.3-32 32v64H32c-17.7 0-32-14.3-32-32V448c0-53 43-96 96-96zm80 112v48H144V464c0-8.8 7.2-16 16-16s16 7.2 16 16zm48-16c8.8 0 16 7.2 16 16v48H208V464c0-8.8 7.2-16 16-16zm80 16v48H272V464c0-8.8 7.2-16 16-16s16 7.2 16 16z"/></svg>
